svg/fluentui-system-icons/ic_fluent_text_bullet_list_rtl_20_filled.svg

<svg width="20" height="20" viewBox="0 0 20 20" fill="none" xmlns="http://www.w3.org/2000/svg">
<path d="M16.75 6C16.0596 6 15.5 5.44036 15.5 4.75C15.5 4.05964 16.0596 3.5 16.75 3.5C17.4404 3.5 18 4.05964 18 4.75C18 5.44036 17.4404 6 16.75 6ZM13 4.75C13 4.33579 12.6642 4 12.25 4H2.75C2.33579 4 2 4.33579 2 4.75C2 5.16421 2.33579 5.5 2.75 5.5H12.25C12.6642 5.5 13 5.16421 13 4.75ZM12.25 9C12.6642 9 13 9.33579 13 9.75C13 10.1642 12.6642 10.5 12.25 10.5H2.75C2.33579 10.5 2 10.1642 2 9.75C2 9.33579 2.33579 9 2.75 9H12.25ZM12.25 14C12.6642 14 13 14.3358 13 14.75C13 15.1642 12.6642 15.5 12.25 15.5H2.75C2.33579 15.5 2 15.1642 2 14.75C2 14.3358 2.33579 14 2.75 14H12.25ZM15.5 9.75C15.5 10.4404 16.0596 11 16.75 11C17.4404 11 18 10.4404 18 9.75C18 9.05964 17.4404 8.5 16.75 8.5C16.0596 8.5 15.5 9.05964 15.5 9.75ZM16.75 16C16.0596 16 15.5 15.4404 15.5 14.75C15.5 14.0596 16.0596 13.5 16.75 13.5C17.4404 13.5 18 14.0596 18 14.75C18 15.4404 17.4404 16 16.75 16Z" fill="#212121"/>
</svg>

<svg xmlns="http://www.w3.org/2000/svg" width="20" height="20"><path d="M16.75 6a1.25 1.25 0 1 1 0-2.5 1.25 1.25 0 0 1 0 2.5ZM13 4.75a.75.75 0 0 0-.75-.75h-9.5a.75.75 0 0 0 0 1.5h9.5a.75.75 0 0 0 .75-.75ZM12.25 9a.75.75 0 0 1 0 1.5h-9.5a.75.75 0 0 1 0-1.5h9.5Zm0 5a.75.75 0 0 1 0 1.5h-9.5a.75.75 0 0 1 0-1.5h9.5Zm3.25-4.25a1.25 1.25 0 1 0 2.5 0 1.25 1.25 0 0 0-2.5 0ZM16.75 16a1.25 1.25 0 1 1 0-2.5 1.25 1.25 0 0 1 0 2.5Z"/></svg>
